Simply-Green-Circles/scalable/apps/cuttlefish.svg

<svg xmlns="http://www.w3.org/2000/svg" width="48" height="48" viewBox="0 0 12.7 12.7"><path d="M6.34.07a6.29 6.29 0 0 0-6.29 6.3 6.29 6.29 0 0 0 6.3 6.28 6.29 6.29 0 0 0 6.28-6.29A6.29 6.29 0 0 0 6.34.07zM6.32 1l.01.01a5.4 5.4 0 0 1 5.4 5.4 5.4 5.4 0 0 1-5.4 5.41 5.4 5.4 0 0 1-5.41-5.4A5.4 5.4 0 0 1 6.32 1zm.03 1.131c-.798 0-1.53.282-2.12.753-.29-.025-.647.008-.647.33 0 .04.008.095.017.157a1.016 1.883 13.34 0 1 .155-.027 1.016 1.883 13.34 0 1 .172.021 1.016 1.883 13.34 0 1 .112.048 1.017 3.765 13.956 0 1-.326 1.848 1.017 3.765 13.956 0 1-.585 1.774 1.016 1.883 13.34 0 1-.118-.018 1.016 1.883 13.34 0 1-.195-.103c-.062.235.22.417.443.52.065.08.137.151.214.218-.002.155.002.303.022.429.126.81-.379 1.35 0 1.35.378 0 .755-.539.756-1.347.049.017.097.034.147.049-.023.292-.028.573.007.794.126.81-.379 1.35 0 1.35.378 0 .757-.54.757-1.35V8.28c.07.009.141.017.214.023-.047.4-.07.81-.023 1.11.126.81-.379 1.35 0 1.35.378 0 .757-.54.757-1.35V8.34l.24.003c.082 0 .162-.002.242-.003v1.075c0 .81.378 1.35.757 1.35.378 0-.126-.54 0-1.35.047-.3.024-.712-.023-1.11.072-.007.143-.016.214-.024v.647c0 .81.378 1.35.757 1.35.378 0-.127-.54 0-1.35.034-.22.03-.502.006-.794.05-.015.098-.032.147-.049 0 .808.379 1.346.757 1.346s-.127-.54 0-1.35c.02-.125.023-.273.022-.428.076-.066.148-.137.212-.216.224-.103.51-.286.447-.522a1.883 1.016 76.66 0 1-.198.103 1.883 1.016 76.66 0 1-.117.018 3.765 1.017 76.044 0 1-.585-1.774 3.765 1.017 76.044 0 1-.326-1.848 1.883 1.016 76.66 0 1 .111-.048 1.883 1.016 76.66 0 1 .173-.02 1.883 1.016 76.66 0 1 .171.032c.01-.065.018-.124.018-.165 0-.328-.372-.357-.665-.33a3.386 3.386 0 0 0-2.12-.75zm2.766 1.246a3.73 3.73 0 0 1-.024.136c.28.364.495.786.632 1.246-.178-.001-.221-.06-.373-.093-.214-.045-.616.382-.268.318.311-.058.426.408.786.502.015.14.024.281.024.425 0 .314-.035.588-.102.828.03.04.057.078.072.107.013.023.018.045.024.068a1.883 1.016 76.66 0 0 .322-2.003 1.883 1.016 76.66 0 0-1.093-1.534zM2.815 6.914c.006-.023.01-.045.023-.068a.881.881 0 0 1 .071-.105 3.064 3.064 0 0 1-.103-.83c0-.144.01-.285.025-.425.36-.094.475-.56.786-.502.348.064-.054-.363-.269-.318-.151.032-.194.092-.372.093.14-.467.359-.896.645-1.264a3.578 3.578 0 0 1-.02-.124 1.016 1.883 13.34 0 0-1.11 1.54 1.016 1.883 13.34 0 0 .324 2.003zM6.37 2.41c.368 0 .718.077 1.039.215a.525.525 0 0 1-.043.188c-.149.332-.618.553-.834.444-.2-.102-.3-.52-.195-.846l.033-.001zm-.185.01c.041.19.037.389-.04.531-.167.314-.634.288-.902.124A.545.545 0 0 1 5 2.798a2.63 2.63 0 0 1 1.185-.377zm1.31.488c.097 0 .014.128.014.22s.033.407-.063.407c-.097 0-.3-.234-.3-.326 0-.093.253-.301.35-.301zm-2.105.284a.124.124 0 0 1 .052.016c.126.073.009.343-.04.439-.05.096-.16.261-.286.188-.127-.073-.123-.324-.074-.42.042-.084.22-.235.348-.223zm.778.033c.14-.002.261.043.315.167.108.247-.167.74-.43.87-.263.131-.414.037-.522-.21-.108-.247-.057-.58.206-.711a1.06 1.06 0 0 1 .431-.116zm.748.111c.17-.015.314.097.408.285.125.25.163.674-.084.814-.247.14-.586.011-.71-.239-.126-.25-.039-.66.208-.8a.44.44 0 0 1 .178-.06zm.704.377c.143-.01.265.205.272.314.006.11-.093.392-.237.402-.143.009-.177-.286-.184-.395-.006-.11.005-.312.149-.321zm-1.39.572a.314.314 0 0 1 .18.057c.218.154.17.483.044.686-.126.203-.467.23-.686.075-.22-.154-.157-.324-.032-.527.094-.152.303-.294.494-.291zm-.652.05c.078 0 .092.063.092.174 0 .11-.076.16-.155.16-.078 0-.13-.05-.13-.16s.115-.174.193-.174zm1.248.24c.121 0 .332.126.332.28 0 .155-.161.281-.282.281-.12 0-.28-.005-.28-.16s.11-.4.23-.4z" stroke-width="3.78" fill="#2ca02c"/></svg>

<?xml version="1.0" encoding="UTF-8" standalone="no"?>
<svg
   xmlns:dc="http://purl.org/dc/elements/1.1/"
   xmlns:cc="http://creativecommons.org/ns#"
   xmlns:rdf="http://www.w3.org/1999/02/22-rdf-syntax-ns#"
   xmlns:svg="http://www.w3.org/2000/svg"
   xmlns="http://www.w3.org/2000/svg"
   xmlns:sodipodi="http://sodipodi.sourceforge.net/DTD/sodipodi-0.dtd"
   xmlns:inkscape="http://www.inkscape.org/namespaces/inkscape"
   width="48"
   height="48"
   viewBox="0 0 12.7 12.7"
   version="1.1"
   id="svg4"
   sodipodi:docname="cuttlefish.svg"
   inkscape:version="0.92.4 (5da689c313, 2019-01-14)">
  <metadata
     id="metadata10">
    <rdf:RDF>
      <cc:Work
         rdf:about="">
        <dc:format>image/svg+xml</dc:format>
        <dc:type
           rdf:resource="http://purl.org/dc/dcmitype/StillImage" />
        <dc:title></dc:title>
      </cc:Work>
    </rdf:RDF>
  </metadata>
  <defs
     id="defs8" />
  <sodipodi:namedview
     pagecolor="#ffffff"
     bordercolor="#666666"
     borderopacity="1"
     objecttolerance="10"
     gridtolerance="10"
     guidetolerance="10"
     inkscape:pageopacity="0"
     inkscape:pageshadow="2"
     inkscape:window-width="1087"
     inkscape:window-height="480"
     id="namedview6"
     showgrid="false"
     inkscape:zoom="4.9166667"
     inkscape:cx="2.1355932"
     inkscape:cy="24"
     inkscape:window-x="0"
     inkscape:window-y="25"
     inkscape:window-maximized="0"
     inkscape:current-layer="svg4" />
  <path
     d="M 6.34,0.07 A 6.29,6.29 0 0 0 0.05,6.37 6.29,6.29 0 0 0 6.35,12.65 6.29,6.29 0 0 0 12.63,6.36 6.29,6.29 0 0 0 6.34,0.07 Z M 6.32,1 6.33,1.01 a 5.4,5.4 0 0 1 5.4,5.4 5.4,5.4 0 0 1 -5.4,5.41 A 5.4,5.4 0 0 1 0.92,6.42 5.4,5.4 0 0 1 6.32,1 Z m 0.03,1.131 c -0.798,0 -1.53,0.282 -2.12,0.753 -0.29,-0.025 -0.647,0.008 -0.647,0.33 0,0.04 0.008,0.095 0.017,0.157 A 1.016,1.883 13.34 0 1 3.755,3.344 1.016,1.883 13.34 0 1 3.927,3.365 1.016,1.883 13.34 0 1 4.039,3.413 1.017,3.765 13.956 0 1 3.713,5.261 1.017,3.765 13.956 0 1 3.128,7.035 1.016,1.883 13.34 0 1 3.01,7.017 1.016,1.883 13.34 0 1 2.815,6.914 c -0.062,0.235 0.22,0.417 0.443,0.52 0.065,0.08 0.137,0.151 0.214,0.218 -0.002,0.155 0.002,0.303 0.022,0.429 0.126,0.81 -0.379,1.35 0,1.35 0.378,0 0.755,-0.539 0.756,-1.347 0.049,0.017 0.097,0.034 0.147,0.049 -0.023,0.292 -0.028,0.573 0.007,0.794 0.126,0.81 -0.379,1.35 0,1.35 0.378,0 0.757,-0.54 0.757,-1.35 V 8.28 c 0.07,0.009 0.141,0.017 0.214,0.023 -0.047,0.4 -0.07,0.81 -0.023,1.11 0.126,0.81 -0.379,1.35 0,1.35 0.378,0 0.757,-0.54 0.757,-1.35 V 8.34 l 0.24,0.003 c 0.082,0 0.162,-0.002 0.242,-0.003 v 1.075 c 0,0.81 0.378,1.35 0.757,1.35 0.378,0 -0.126,-0.54 0,-1.35 C 7.395,9.115 7.372,8.703 7.325,8.305 7.397,8.298 7.468,8.289 7.539,8.281 v 0.647 c 0,0.81 0.378,1.35 0.757,1.35 0.378,0 -0.127,-0.54 0,-1.35 C 8.33,8.708 8.326,8.426 8.302,8.134 8.352,8.119 8.4,8.102 8.449,8.085 c 0,0.808 0.379,1.346 0.757,1.346 0.378,0 -0.127,-0.54 0,-1.35 C 9.226,7.956 9.229,7.808 9.228,7.653 9.304,7.587 9.376,7.516 9.44,7.437 9.664,7.334 9.95,7.151 9.887,6.915 A 1.883,1.016 76.66 0 1 9.689,7.018 1.883,1.016 76.66 0 1 9.572,7.036 3.765,1.017 76.044 0 1 8.987,5.262 3.765,1.017 76.044 0 1 8.661,3.414 1.883,1.016 76.66 0 1 8.772,3.366 1.883,1.016 76.66 0 1 8.945,3.346 1.883,1.016 76.66 0 1 9.116,3.378 C 9.126,3.313 9.134,3.254 9.134,3.213 9.134,2.885 8.762,2.856 8.469,2.883 A 3.386,3.386 0 0 0 6.349,2.133 Z M 9.116,3.377 A 3.73,3.73 0 0 1 9.092,3.513 C 9.372,3.877 9.587,4.299 9.724,4.759 9.546,4.758 9.503,4.699 9.351,4.666 9.137,4.621 8.735,5.048 9.083,4.984 9.394,4.926 9.509,5.392 9.869,5.486 c 0.015,0.14 0.024,0.281 0.024,0.425 0,0.314 -0.035,0.588 -0.102,0.828 0.03,0.04 0.057,0.078 0.072,0.107 0.013,0.023 0.018,0.045 0.024,0.068 A 1.883,1.016 76.66 0 0 10.209,4.911 1.883,1.016 76.66 0 0 9.116,3.377 Z M 2.815,6.914 C 2.821,6.891 2.825,6.869 2.838,6.846 A 0.881,0.881 0 0 1 2.909,6.741 3.064,3.064 0 0 1 2.806,5.911 C 2.806,5.767 2.816,5.626 2.831,5.486 3.191,5.392 3.306,4.926 3.617,4.984 3.965,5.048 3.563,4.621 3.348,4.666 3.197,4.698 3.154,4.758 2.976,4.759 3.116,4.292 3.335,3.863 3.621,3.495 A 3.578,3.578 0 0 1 3.601,3.371 1.016,1.883 13.34 0 0 2.491,4.911 1.016,1.883 13.34 0 0 2.815,6.914 Z M 6.37,2.41 c 0.368,0 0.718,0.077 1.039,0.215 A 0.525,0.525 0 0 1 7.366,2.813 C 7.217,3.145 6.748,3.366 6.532,3.257 6.332,3.155 6.232,2.737 6.337,2.411 Z M 6.185,2.42 C 6.226,2.61 6.222,2.809 6.145,2.951 5.978,3.265 5.511,3.239 5.243,3.075 A 0.545,0.545 0 0 1 5,2.798 2.63,2.63 0 0 1 6.185,2.421 Z m 1.31,0.488 c 0.097,0 0.014,0.128 0.014,0.22 0,0.092 0.033,0.407 -0.063,0.407 -0.097,0 -0.3,-0.234 -0.3,-0.326 0,-0.093 0.253,-0.301 0.35,-0.301 z M 5.39,3.192 A 0.124,0.124 0 0 1 5.442,3.208 C 5.568,3.281 5.451,3.551 5.402,3.647 5.352,3.743 5.242,3.908 5.116,3.835 4.989,3.762 4.993,3.511 5.042,3.415 5.084,3.331 5.262,3.18 5.39,3.192 Z M 6.168,3.225 C 6.308,3.223 6.429,3.268 6.483,3.392 6.591,3.639 6.316,4.132 6.053,4.262 5.79,4.393 5.639,4.299 5.531,4.052 5.423,3.805 5.474,3.472 5.737,3.341 A 1.06,1.06 0 0 1 6.168,3.225 Z M 6.916,3.336 C 7.086,3.321 7.23,3.433 7.324,3.621 7.449,3.871 7.487,4.295 7.24,4.435 6.993,4.575 6.654,4.446 6.53,4.196 6.404,3.946 6.491,3.536 6.738,3.396 A 0.44,0.44 0 0 1 6.916,3.336 Z M 7.62,3.713 C 7.763,3.703 7.885,3.918 7.892,4.027 7.898,4.137 7.799,4.419 7.655,4.429 7.512,4.438 7.478,4.143 7.471,4.034 7.465,3.924 7.476,3.722 7.62,3.713 Z M 6.23,4.285 A 0.314,0.314 0 0 1 6.41,4.342 C 6.628,4.496 6.58,4.825 6.454,5.028 6.328,5.231 5.987,5.258 5.768,5.103 5.548,4.949 5.611,4.779 5.736,4.576 5.83,4.424 6.039,4.282 6.23,4.285 Z m -0.652,0.05 c 0.078,0 0.092,0.063 0.092,0.174 0,0.11 -0.076,0.16 -0.155,0.16 -0.078,0 -0.13,-0.05 -0.13,-0.16 0,-0.11 0.115,-0.174 0.193,-0.174 z m 1.248,0.24 c 0.121,0 0.332,0.126 0.332,0.28 0,0.155 -0.161,0.281 -0.282,0.281 -0.12,0 -0.28,-0.005 -0.28,-0.16 0,-0.155 0.11,-0.4 0.23,-0.4 z"
     id="path2"
     inkscape:connector-curvature="0"
     style="fill:#2ca02c;stroke-width:3.77999997" />
</svg>
